X:1
T:Practica 4
M:4/4
L: 1/8
Q: 1/4=60
V: Der
%%MIDI program 0
K:C clef=treble
	CDCD DEDE | EFEF FGFG | GAGA ABAB |
	BABA AGAG | GFGF FEFE | EDED DCDC |
V: Izq
K:C clef=bass
%%MIDI program 1
  C,D,C,D, D,E,D,E, | E,F,E,F, F,G,F,G, | G,A,G,A, A,B,A,B, |  
  B,A,B,A, A,G,A,G, | G,F,G,F, F,E,F,E, | E,D,E,D, D,C,D,C, |   
